assets/1. F-P/One oclock/Color/One.Oclock-color.svg

<svg width="100%" height="100%" viewBox="0 0 32 32" fill="none" xmlns="http://www.w3.org/2000/svg">
<path d="M29.9688 16.067C29.9688 23.799 23.7008 30.067 15.9688 30.067C8.23682 30.067 1.96881 23.799 1.96881 16.067C1.96881 8.33503 8.23682 2.06702 15.9688 2.06702C23.7008 2.06702 29.9688 8.33503 29.9688 16.067Z" fill="url(#paint0_radial_18_13501)"/>
<g filter="url(#filter0_f_18_13501)">
<path d="M14.5782 7.99878C15.1305 7.99878 15.5782 8.4465 15.5782 8.99878V13.2193L16.667 11.3336C16.9431 10.8553 17.5547 10.6914 18.033 10.9675C18.5113 11.2437 18.6752 11.8553 18.399 12.3336L16.2908 15.9852C16.4678 16.2826 16.5695 16.63 16.5695 17.0012C16.5695 18.0996 15.679 18.99 14.5806 18.99C13.4822 18.99 12.5918 18.0996 12.5918 17.0012C12.5918 16.2683 12.9882 15.628 13.5782 15.283V8.99878C13.5782 8.4465 14.026 7.99878 14.5782 7.99878Z" fill="#C4C1C8"/>
</g>
<g filter="url(#filter1_i_18_13501)">
<path fill-rule="evenodd" clip-rule="evenodd" d="M15.9976 7.07581C16.5499 7.07581 16.9976 7.52352 16.9976 8.07581V16.0712C16.9976 16.6235 16.5499 17.0712 15.9976 17.0712C15.4453 17.0712 14.9976 16.6235 14.9976 16.0712V8.07581C14.9976 7.52352 15.4453 7.07581 15.9976 7.07581Z" fill="url(#paint1_linear_18_13501)"/>
<path fill-rule="evenodd" clip-rule="evenodd" d="M15.9976 7.07581C16.5499 7.07581 16.9976 7.52352 16.9976 8.07581V16.0712C16.9976 16.6235 16.5499 17.0712 15.9976 17.0712C15.4453 17.0712 14.9976 16.6235 14.9976 16.0712V8.07581C14.9976 7.52352 15.4453 7.07581 15.9976 7.07581Z" fill="url(#paint2_radial_18_13501)"/>
</g>
<path fill-rule="evenodd" clip-rule="evenodd" d="M19.4524 10.0446C19.9307 10.3207 20.0946 10.9323 19.8184 11.4106L16.8348 16.5783C16.5587 17.0566 15.9471 17.2205 15.4688 16.9443C14.9905 16.6682 14.8266 16.0566 15.1028 15.5783L18.0864 10.4106C18.3625 9.93229 18.9741 9.76841 19.4524 10.0446Z" fill="url(#paint3_linear_18_13501)"/>
<path fill-rule="evenodd" clip-rule="evenodd" d="M19.4524 10.0446C19.9307 10.3207 20.0946 10.9323 19.8184 11.4106L16.8348 16.5783C16.5587 17.0566 15.9471 17.2205 15.4688 16.9443C14.9905 16.6682 14.8266 16.0566 15.1028 15.5783L18.0864 10.4106C18.3625 9.93229 18.9741 9.76841 19.4524 10.0446Z" fill="url(#paint4_linear_18_13501)"/>
<path fill-rule="evenodd" clip-rule="evenodd" d="M19.4524 10.0446C19.9307 10.3207 20.0946 10.9323 19.8184 11.4106L16.8348 16.5783C16.5587 17.0566 15.9471 17.2205 15.4688 16.9443C14.9905 16.6682 14.8266 16.0566 15.1028 15.5783L18.0864 10.4106C18.3625 9.93229 18.9741 9.76841 19.4524 10.0446Z" fill="url(#paint5_radial_18_13501)"/>
<path fill-rule="evenodd" clip-rule="evenodd" d="M19.4524 10.0446C19.9307 10.3207 20.0946 10.9323 19.8184 11.4106L16.8348 16.5783C16.5587 17.0566 15.9471 17.2205 15.4688 16.9443C14.9905 16.6682 14.8266 16.0566 15.1028 15.5783L18.0864 10.4106C18.3625 9.93229 18.9741 9.76841 19.4524 10.0446Z" fill="url(#paint6_linear_18_13501)"/>
<g filter="url(#filter2_ii_18_13501)">
<path fill-rule="evenodd" clip-rule="evenodd" d="M15.9688 27.067C22.0439 27.067 26.9688 22.1421 26.9688 16.067C26.9688 9.99188 22.0439 5.06702 15.9688 5.06702C9.89368 5.06702 4.96881 9.99188 4.96881 16.067C4.96881 22.1421 9.89368 27.067 15.9688 27.067ZM15.9688 30.067C23.7008 30.067 29.9688 23.799 29.9688 16.067C29.9688 8.33503 23.7008 2.06702 15.9688 2.06702C8.23682 2.06702 1.96881 8.33503 1.96881 16.067C1.96881 23.799 8.23682 30.067 15.9688 30.067Z" fill="url(#paint7_linear_18_13501)"/>
</g>
<path d="M17.9888 16.0782C17.9888 17.1766 17.0984 18.067 16 18.067C14.9016 18.067 14.0112 17.1766 14.0112 16.0782C14.0112 14.9798 14.9016 14.0894 16 14.0894C17.0984 14.0894 17.9888 14.9798 17.9888 16.0782Z" fill="url(#paint8_radial_18_13501)"/>
<path d="M17.9888 16.0782C17.9888 17.1766 17.0984 18.067 16 18.067C14.9016 18.067 14.0112 17.1766 14.0112 16.0782C14.0112 14.9798 14.9016 14.0894 16 14.0894C17.0984 14.0894 17.9888 14.9798 17.9888 16.0782Z" fill="url(#paint9_radial_18_13501)"/>
<defs>
<filter id="filter0_f_18_13501" x="11.0918" y="6.49878" width="8.94138" height="13.9912" filterUnits="userSpaceOnUse" color-interpolation-filters="sRGB">
<feFlood flood-opacity="0" result="BackgroundImageFix"/>
<feBlend mode="normal" in="SourceGraphic" in2="BackgroundImageFix" result="shape"/>
<feGaussianBlur stdDeviation="0.75" result="effect1_foregroundBlur_18_13501"/>
</filter>
<filter id="filter1_i_18_13501" x="14.9976" y="7.07581" width="2.6" height="9.99536" filterUnits="userSpaceOnUse" color-interpolation-filters="sRGB">
<feFlood flood-opacity="0" result="BackgroundImageFix"/>
<feBlend mode="normal" in="SourceGraphic" in2="BackgroundImageFix" result="shape"/>
<feColorMatrix in="SourceAlpha" type="matrix" values="0 0 0 0 0 0 0 0 0 0 0 0 0 0 0 0 0 0 127 0" result="hardAlpha"/>
<feOffset dx="0.6"/>
<feGaussianBlur stdDeviation="0.425"/>
<feComposite in2="hardAlpha" operator="arithmetic" k2="-1" k3="1"/>
<feColorMatrix type="matrix" values="0 0 0 0 0.635294 0 0 0 0 0.227451 0 0 0 0 0.403922 0 0 0 1 0"/>
<feBlend mode="normal" in2="shape" result="effect1_innerShadow_18_13501"/>
</filter>
<filter id="filter2_ii_18_13501" x="1.56881" y="1.66702" width="28.8" height="28.8" filterUnits="userSpaceOnUse" color-interpolation-filters="sRGB">
<feFlood flood-opacity="0" result="BackgroundImageFix"/>
<feBlend mode="normal" in="SourceGraphic" in2="BackgroundImageFix" result="shape"/>
<feColorMatrix in="SourceAlpha" type="matrix" values="0 0 0 0 0 0 0 0 0 0 0 0 0 0 0 0 0 0 127 0" result="hardAlpha"/>
<feOffset dx="0.4" dy="-0.4"/>
<feGaussianBlur stdDeviation="0.3"/>
<feComposite in2="hardAlpha" operator="arithmetic" k2="-1" k3="1"/>
<feColorMatrix type="matrix" values="0 0 0 0 0.282353 0 0 0 0 0.254902 0 0 0 0 0.313726 0 0 0 1 0"/>
<feBlend mode="normal" in2="shape" result="effect1_innerShadow_18_13501"/>
<feColorMatrix in="SourceAlpha" type="matrix" values="0 0 0 0 0 0 0 0 0 0 0 0 0 0 0 0 0 0 127 0" result="hardAlpha"/>
<feOffset dx="-0.4" dy="0.4"/>
<feGaussianBlur stdDeviation="0.3"/>
<feComposite in2="hardAlpha" operator="arithmetic" k2="-1" k3="1"/>
<feColorMatrix type="matrix" values="0 0 0 0 0.533333 0 0 0 0 0.533333 0 0 0 0 0.533333 0 0 0 1 0"/>
<feBlend mode="normal" in2="effect1_innerShadow_18_13501" result="effect2_innerShadow_18_13501"/>
</filter>
<radialGradient id="paint0_radial_18_13501" cx="0" cy="0" r="1" gradientUnits="userSpaceOnUse" gradientTransform="translate(9.54286 24.5653) rotate(-46.2124) scale(25.2966)">
<stop offset="0.598155" stop-color="#DDDADF"/>
<stop offset="1" stop-color="#BDBABF"/>
</radialGradient>
<linearGradient id="paint1_linear_18_13501" x1="15.9976" y1="7.07581" x2="15.9976" y2="17.0712" gradientUnits="userSpaceOnUse">
<stop stop-color="#F83F4C"/>
<stop offset="1" stop-color="#F74093"/>
</linearGradient>
<radialGradient id="paint2_radial_18_13501" cx="0" cy="0" r="1" gradientUnits="userSpaceOnUse" gradientTransform="translate(15.9976 14.7545) rotate(-63.8004) scale(4.04007 1.32805)">
<stop offset="0.249787" stop-color="#911A57"/>
<stop offset="1" stop-color="#911A57" stop-opacity="0"/>
</radialGradient>
<linearGradient id="paint3_linear_18_13501" x1="19.4524" y1="10.0446" x2="16.5467" y2="15.0774" gradientUnits="userSpaceOnUse">
<stop stop-color="#32183D"/>
<stop offset="1" stop-color="#2C3A65"/>
</linearGradient>
<linearGradient id="paint4_linear_18_13501" x1="17.0713" y1="12.1688" x2="17.9373" y2="12.6688" gradientUnits="userSpaceOnUse">
<stop stop-color="#2E2840"/>
<stop offset="1" stop-color="#2E2840" stop-opacity="0"/>
</linearGradient>
<radialGradient id="paint5_radial_18_13501" cx="0" cy="0" r="1" gradientUnits="userSpaceOnUse" gradientTransform="translate(19.7839 10.6891) rotate(120) scale(5.73026 0.815281)">
<stop stop-color="#50375F"/>
<stop offset="1" stop-color="#50375F" stop-opacity="0"/>
</radialGradient>
<linearGradient id="paint6_linear_18_13501" x1="19.4524" y1="10.0446" x2="19.0936" y2="10.6661" gradientUnits="userSpaceOnUse">
<stop stop-color="#3E1846"/>
<stop offset="1" stop-color="#3E1846" stop-opacity="0"/>
</linearGradient>
<linearGradient id="paint7_linear_18_13501" x1="24.4796" y1="4.08051" x2="4.25261" y2="28.6006" gradientUnits="userSpaceOnUse">
<stop stop-color="#6D6B70"/>
<stop offset="1" stop-color="#706C74"/>
</linearGradient>
<radialGradient id="paint8_radial_18_13501" cx="0" cy="0" r="1" gradientUnits="userSpaceOnUse" gradientTransform="translate(17.0798 15.6197) rotate(134.039) scale(3.40442)">
<stop stop-color="#C9C6CC"/>
<stop offset="1" stop-color="#928E95"/>
</radialGradient>
<radialGradient id="paint9_radial_18_13501" cx="0" cy="0" r="1" gradientUnits="userSpaceOnUse" gradientTransform="translate(16.5626 15.5717) rotate(139.399) scale(2.88111)">
<stop offset="0.527069" stop-color="#776F7F" stop-opacity="0"/>
<stop offset="1" stop-color="#776F7F"/>
</radialGradient>
</defs>
</svg>

<svg width="100%" height="100%" viewBox="0 0 32 32" xmlns="http://www.w3.org/2000/svg"><path fill="url(#a)" d="M29.969 16.067c0 7.732-6.268 14-14 14s-14-6.268-14-14 6.268-14 14-14 14 6.268 14 14"/><g filter="url(#b)"><path fill="#C4C1C8" d="M14.578 7.999a1 1 0 0 1 1 1v4.22l1.089-1.885a1 1 0 1 1 1.732 1l-2.108 3.651a1.989 1.989 0 1 1-2.713-.702V8.999a1 1 0 0 1 1-1"/></g><g fill-rule="evenodd" clip-rule="evenodd" filter="url(#c)"><path fill="url(#d)" d="M15.998 7.076a1 1 0 0 1 1 1v7.995a1 1 0 1 1-2 0V8.076a1 1 0 0 1 1-1"/><path fill="url(#e)" d="M15.998 7.076a1 1 0 0 1 1 1v7.995a1 1 0 1 1-2 0V8.076a1 1 0 0 1 1-1"/></g><path fill="url(#f)" fill-rule="evenodd" d="M19.452 10.045a1 1 0 0 1 .366 1.366l-2.983 5.167a1 1 0 1 1-1.732-1l2.983-5.167a1 1 0 0 1 1.366-.366" clip-rule="evenodd"/><path fill="url(#g)" fill-rule="evenodd" d="M19.452 10.045a1 1 0 0 1 .366 1.366l-2.983 5.167a1 1 0 1 1-1.732-1l2.983-5.167a1 1 0 0 1 1.366-.366" clip-rule="evenodd"/><path fill="url(#h)" fill-rule="evenodd" d="M19.452 10.045a1 1 0 0 1 .366 1.366l-2.983 5.167a1 1 0 1 1-1.732-1l2.983-5.167a1 1 0 0 1 1.366-.366" clip-rule="evenodd"/><path fill="url(#i)" fill-rule="evenodd" d="M19.452 10.045a1 1 0 0 1 .366 1.366l-2.983 5.167a1 1 0 1 1-1.732-1l2.983-5.167a1 1 0 0 1 1.366-.366" clip-rule="evenodd"/><g filter="url(#j)"><path fill="url(#k)" fill-rule="evenodd" d="M15.969 27.067c6.075 0 11-4.925 11-11s-4.925-11-11-11-11 4.925-11 11 4.925 11 11 11m0 3c7.732 0 14-6.268 14-14s-6.268-14-14-14-14 6.268-14 14 6.268 14 14 14" clip-rule="evenodd"/></g><path fill="url(#l)" d="M17.989 16.078a1.989 1.989 0 1 1-3.978 0 1.989 1.989 0 0 1 3.978 0"/><path fill="url(#m)" d="M17.989 16.078a1.989 1.989 0 1 1-3.978 0 1.989 1.989 0 0 1 3.978 0"/><defs><radialGradient id="a" cx="0" cy="0" r="1" gradientTransform="rotate(-46.212 33.56 1.1)scale(25.2966)" gradientUnits="userSpaceOnUse"><stop offset=".598" stop-color="#DDDADF"/><stop offset="1" stop-color="#BDBABF"/></radialGradient><radialGradient id="e" cx="0" cy="0" r="1" gradientTransform="rotate(-63.8 19.85 -5.473)scale(4.04007 1.32805)" gradientUnits="userSpaceOnUse"><stop offset=".25" stop-color="#911A57"/><stop offset="1" stop-color="#911A57" stop-opacity="0"/></radialGradient><radialGradient id="h" cx="0" cy="0" r="1" gradientTransform="rotate(120 6.806 11.056)scale(5.73026 .81528)" gradientUnits="userSpaceOnUse"><stop stop-color="#50375F"/><stop offset="1" stop-color="#50375F" stop-opacity="0"/></radialGradient><radialGradient id="l" cx="0" cy="0" r="1" gradientTransform="rotate(134.039 5.228 11.431)scale(3.40442)" gradientUnits="userSpaceOnUse"><stop stop-color="#C9C6CC"/><stop offset="1" stop-color="#928E95"/></radialGradient><radialGradient id="m" cx="0" cy="0" r="1" gradientTransform="rotate(139.399 5.401 10.85)scale(2.88111)" gradientUnits="userSpaceOnUse"><stop offset=".527" stop-color="#776F7F" stop-opacity="0"/><stop offset="1" stop-color="#776F7F"/></radialGradient><linearGradient id="d" x1="15.998" x2="15.998" y1="7.076" y2="17.071" gradientUnits="userSpaceOnUse"><stop stop-color="#F83F4C"/><stop offset="1" stop-color="#F74093"/></linearGradient><linearGradient id="f" x1="19.452" x2="16.547" y1="10.045" y2="15.077" gradientUnits="userSpaceOnUse"><stop stop-color="#32183D"/><stop offset="1" stop-color="#2C3A65"/></linearGradient><linearGradient id="g" x1="17.071" x2="17.937" y1="12.169" y2="12.669" gradientUnits="userSpaceOnUse"><stop stop-color="#2E2840"/><stop offset="1" stop-color="#2E2840" stop-opacity="0"/></linearGradient><linearGradient id="i" x1="19.452" x2="19.094" y1="10.045" y2="10.666" gradientUnits="userSpaceOnUse"><stop stop-color="#3E1846"/><stop offset="1" stop-color="#3E1846" stop-opacity="0"/></linearGradient><linearGradient id="k" x1="24.48" x2="4.253" y1="4.081" y2="28.601" gradientUnits="userSpaceOnUse"><stop stop-color="#6D6B70"/><stop offset="1" stop-color="#706C74"/></linearGradient><filter id="b" width="8.941" height="13.991" x="11.092" y="6.499" color-interpolation-filters="sRGB" filterUnits="userSpaceOnUse"><feFlood flood-opacity="0" result="BackgroundImageFix"/><feBlend in="SourceGraphic" in2="BackgroundImageFix" result="shape"/><feGaussianBlur result="effect1_foregroundBlur_18_13501" stdDeviation=".75"/></filter><filter id="c" width="2.6" height="9.995" x="14.998" y="7.076" color-interpolation-filters="sRGB" filterUnits="userSpaceOnUse"><feFlood flood-opacity="0" result="BackgroundImageFix"/><feBlend in="SourceGraphic" in2="BackgroundImageFix" result="shape"/><feColorMatrix in="SourceAlpha" result="hardAlpha" values="0 0 0 0 0 0 0 0 0 0 0 0 0 0 0 0 0 0 127 0"/><feOffset dx=".6"/><feGaussianBlur stdDeviation=".425"/><feComposite in2="hardAlpha" k2="-1" k3="1" operator="arithmetic"/><feColorMatrix values="0 0 0 0 0.635294 0 0 0 0 0.227451 0 0 0 0 0.403922 0 0 0 1 0"/><feBlend in2="shape" result="effect1_innerShadow_18_13501"/></filter><filter id="j" width="28.8" height="28.8" x="1.569" y="1.667" color-interpolation-filters="sRGB" filterUnits="userSpaceOnUse"><feFlood flood-opacity="0" result="BackgroundImageFix"/><feBlend in="SourceGraphic" in2="BackgroundImageFix" result="shape"/><feColorMatrix in="SourceAlpha" result="hardAlpha" values="0 0 0 0 0 0 0 0 0 0 0 0 0 0 0 0 0 0 127 0"/><feOffset dx=".4" dy="-.4"/><feGaussianBlur stdDeviation=".3"/><feComposite in2="hardAlpha" k2="-1" k3="1" operator="arithmetic"/><feColorMatrix values="0 0 0 0 0.282353 0 0 0 0 0.254902 0 0 0 0 0.313726 0 0 0 1 0"/><feBlend in2="shape" result="effect1_innerShadow_18_13501"/><feColorMatrix in="SourceAlpha" result="hardAlpha" values="0 0 0 0 0 0 0 0 0 0 0 0 0 0 0 0 0 0 127 0"/><feOffset dx="-.4" dy=".4"/><feGaussianBlur stdDeviation=".3"/><feComposite in2="hardAlpha" k2="-1" k3="1" operator="arithmetic"/><feColorMatrix values="0 0 0 0 0.533333 0 0 0 0 0.533333 0 0 0 0 0.533333 0 0 0 1 0"/><feBlend in2="effect1_innerShadow_18_13501" result="effect2_innerShadow_18_13501"/></filter></defs></svg>
